src/assets/images/logo.svg

<svg width="182" height="182" viewBox="0 0 182 182" fill="none" xmlns="http://www.w3.org/2000/svg">
<path fill-rule="evenodd" clip-rule="evenodd" d="M180.351 12.7624C166.852 10.9674 114.342 3.9865 84.6885 0.0688633C82.4174 -0.231183 80.1357 0.458336 78.4059 1.96024L11.0876 60.4089C9.64166 61.6643 10.6167 64.0383 12.5276 63.915L22.2179 63.2898L25.7423 70.8421L25.1771 71.3409C22.8548 73.39 21.7028 76.4593 22.1034 79.5303C22.1591 79.9574 22.6219 80.1994 23.0045 80.0016L29.5185 76.6323L36.5175 89.2305C36.8531 89.8346 37.5444 90.1761 38.2324 90.1117C39.789 89.9662 41.311 89.8571 42.7991 89.7832C54.9297 89.1806 42.5885 98.6317 30.5255 100.044C29.2849 107.736 35.9817 114.312 43.7713 114.475C52.1201 114.65 58.9114 116.239 64.3801 118.644C71.5492 121.797 65.1588 127.562 57.4038 126.468C54.7615 126.095 52.3314 125.985 50.2838 126.042C48.7066 126.086 47.4443 127.28 47.1506 128.83L45.6419 136.793C44.2288 144.251 48.9561 151.49 56.286 153.462C57.0591 153.67 57.8311 153.88 58.6006 154.091C63.5436 155.445 62.463 162.115 57.3395 161.989C57.011 161.981 56.7562 162.275 56.8111 162.598C56.9163 163.22 57.0256 163.839 57.1388 164.454C59.9502 179.742 76.8591 186.08 90.6776 178.96L136.291 155.457C138.18 154.484 139.539 152.702 139.897 150.608C146.182 113.868 130.943 88.8231 110.238 74.1336C108.139 72.6442 107.195 69.1711 108.013 66.7308C108.128 66.3882 108.23 66.0734 108.315 65.8073C108.686 64.6317 119.321 65.4633 124.883 65.9814C126.66 66.1469 128.202 64.7532 128.202 62.9685V47.6816L131.627 45.6268C132.532 45.0836 132.86 43.9305 132.375 42.9929L129.461 37.3601C135.233 36.7188 170.227 19.7416 180.656 14.6333C181.543 14.1988 181.33 12.8926 180.351 12.7624ZM35.3077 66.3106L34.8657 65.4267C33.961 63.6171 35.0701 61.4491 37.067 61.124L60.8013 57.2603C62.9841 56.9049 64.788 58.9531 64.1597 61.0736L62.1255 67.9391C61.7481 69.2129 60.5748 70.0691 59.2532 70.2047C54.4459 70.6979 49.5983 72.6585 45.9602 74.5763C43.4374 75.9062 40.1604 75.1279 38.8321 72.6042L45.2146 69.9277C45.8522 69.6604 45.9677 68.8063 45.4241 68.3792L43.4916 66.8608C41.1368 65.0106 37.8889 64.7923 35.3077 66.3106ZM17.5475 49.1194L19.9739 47.0721C22.157 45.2301 22.7389 42.1045 21.3649 39.6002L9.56984 18.1027C8.67507 16.4719 6.96275 15.4583 5.10262 15.4583C1.23937 15.4583 -1.21866 19.5895 0.624461 22.9847L14.5 48.545C15.1046 49.6586 16.5791 49.9365 17.5475 49.1194Z" fill="#141827"/>
</svg>

<svg xmlns="http://www.w3.org/2000/svg" fill="none" viewBox="0 0 182 182">
  <path fill="#141827" fill-rule="evenodd" d="M180.351 12.762A138542.15 138542.15 0 0 0 84.689.07a7.98 7.98 0 0 0-6.283 1.891L11.088 60.41c-1.446 1.255-.471 3.63 1.44 3.506l9.69-.625 3.524 7.552-.565.499a9.315 9.315 0 0 0-3.074 8.19.621.621 0 0 0 .901.47l6.514-3.369 7 12.599c.335.604 1.026.945 1.714.88 1.557-.145 3.079-.254 4.567-.328 12.13-.602-.21 8.849-12.273 10.261-1.241 7.692 5.456 14.268 13.245 14.431 8.35.175 15.14 1.764 20.61 4.169 7.168 3.153.778 8.918-6.977 7.824a42.963 42.963 0 0 0-7.12-.426c-1.577.044-2.84 1.238-3.133 2.788l-1.51 7.963c-1.412 7.458 3.315 14.697 10.645 16.669.773.208 1.545.418 2.315.629 4.943 1.354 3.862 8.024-1.261 7.898a.523.523 0 0 0-.529.609c.105.622.215 1.241.328 1.856 2.811 15.288 19.72 21.626 33.539 14.506l45.613-23.503c1.889-.973 3.248-2.755 3.606-4.849 6.285-36.74-8.954-61.785-29.659-76.474-2.099-1.49-3.043-4.963-2.225-7.403.115-.343.217-.658.302-.924.371-1.175 11.006-.344 16.568.174a3.033 3.033 0 0 0 3.319-3.012V47.681l3.425-2.055a2 2 0 0 0 .748-2.634l-2.914-5.633c5.772-.641 40.766-17.618 51.195-22.727.887-.434.674-1.74-.305-1.87ZM35.308 66.311l-.442-.884a3 3 0 0 1 2.201-4.303l23.734-3.864c2.183-.355 3.987 1.693 3.359 3.814l-2.034 6.865c-.378 1.274-1.551 2.13-2.873 2.266-4.807.493-9.655 2.454-13.293 4.371-2.523 1.33-5.8.552-7.128-1.972l6.383-2.676a.906.906 0 0 0 .21-1.549l-1.933-1.518a7.276 7.276 0 0 0-8.184-.55Zm-17.76-17.192 2.426-2.047a6 6 0 0 0 1.39-7.472L9.57 18.103a5.095 5.095 0 0 0-4.467-2.645c-3.864 0-6.322 4.132-4.479 7.527L14.5 48.545a2 2 0 0 0 3.047.574Z" clip-rule="evenodd"/>
</svg>
